X: 231
T: Miss Honeyman's Strathspey
C: William Shepherd (17??-1812)
R: strathspey
B: William Shepherd "2nd Collection" 1800 p.23 #1
F: http://imslp.org/wiki/File:PMLP73094-Shepherd_Collections_HMT.pdf
Z: 2012 John Chambers <jc:trillian.mit.edu>
M: C
L: 1/8
K: D
F |\
D>FA>TF D<dA>F | D>FA>F E<=cG>E |\
D>FTA>F A>Tdfd | g>ea>f d/d/d Td :|
g |\
f>ed>a f>daf | g<be>d c<ecA |\
f>edTe f>gaf | B>ge>c d/d/d Td ||
g |\
f>ed>e f>ga>f | g>ef>d c>ecA |\
B>Gd>B c>ea>g | f>de>c d/d/d Td |]
